svg/u1f3a7.svg

<svg viewBox="0 0 128 128" xmlns="http://www.w3.org/2000/svg">
  <defs>
    <linearGradient id="SVGID_1_" gradientTransform="matrix(0.9817 -0.1905 0.1905 0.9817 0 0)" gradientUnits="userSpaceOnUse" x1="26.377996" x2="29.308096" y1="102.595035" y2="102.595035">
      <stop offset="0.2016" stop-color="#212121"/>
      <stop offset="1" stop-color="#212121" stop-opacity="0"/>
    </linearGradient>
    <linearGradient id="SVGID_2_" gradientTransform="matrix(-0.9817 -0.1905 -0.1905 0.9817 0 0)" gradientUnits="userSpaceOnUse" x1="-99.276476" x2="-96.346476" y1="78.212167" y2="78.212167">
      <stop offset="0.2016" stop-color="#212121"/>
      <stop offset="1" stop-color="#212121" stop-opacity="0"/>
    </linearGradient>
  </defs>
  <path d="M25.451,99.984 C26.592,105.867 24.265,111.266 20.253,112.045 C16.241,112.824 12.063,108.686 10.921,102.803 C9.78,96.921 12.107,91.521 16.119,90.742 C20.131,89.964 24.309,94.101 25.451,99.984 Z" fill="#616161"/>
  <path d="M18.406,60.186 Q17.569,77.396 20.4,101.5 L14.44,102.2 Q11.552,77.602 12.414,59.894 Z" fill="#616161"/>
  <path d="M111.87,90.73 C115.882,91.509 118.209,96.909 117.068,102.792 C115.926,108.674 111.748,112.812 107.736,112.033 C103.724,111.255 101.397,105.855 102.538,99.972 C103.68,94.089 107.858,89.952 111.87,90.73 Z" fill="#616161"/>
  <path d="M115.586,59.894 Q116.448,77.602 113.56,102.2 L107.6,101.5 Q110.431,77.396 109.594,60.186 Z" fill="#616161"/>
  <path d="M113.93,66.61 L113.93,66.61 C108.76,66.37 104.47,62.49 103.8,57.36 C103.05,51.55 101.12,44.84 96.28,38.4 C88.67,28.29 77.53,22.94 64.05,22.94 C54.6,22.94 41.32,25.62 31.71,38.4 C26.81,44.92 24.9,51.77 24.17,57.67 C23.56,62.56 19.6,66.35 14.67,66.58 L14.07,66.61 C10.61,66.77 7.75,63.91 7.95,60.46 C8.43,52.03 10.55,37.06 19,25.82 C29.58,11.74 45.58,4 64.05,4 C82.45,4 98.41,11.74 108.99,25.8 C117.45,37.05 119.56,52.03 120.05,60.45 C120.25,63.91 117.39,66.77 113.93,66.61 Z" fill="#616161"/>
  <path d="M38.73,123.29 C29.01,124.64 17.86,117.47 15.61,100.88 C13.37,84.36 21.22,74.32 29.18,72.78 L38.73,123.29 Z" fill="#424242"/>
  <path d="M39.29,69.36 L30.83,70.81 C27.41,71.47 24.73,74.12 24.03,77.54 C23.09,82.15 22.49,89.52 24.43,99.57 C26.38,109.61 29.69,116.22 32.3,120.15 C34.22,123.05 37.7,124.51 41.12,123.84 L49.58,122.39 C53.67,121.6 54.68,109.08 51.83,94.44 C48.99,79.8 43.38,68.57 39.29,69.36 Z" fill="#757575"/>
  <path d="M51.832,94.445 C54.457,107.973 53.82,119.475 50.41,120.137 C47,120.799 42.107,110.369 39.482,96.842 C36.857,83.315 37.494,71.812 40.904,71.15 C44.314,70.488 49.207,80.918 51.832,94.445 Z" fill="#424242" opacity="0.5"/>
  <path d="M49.85,94.83 C51.63,103.99 52.02,111.62 50.73,111.87 C49.44,112.12 46.94,104.9 45.17,95.74 C43.39,86.58 43,78.95 44.29,78.7 C45.58,78.45 48.07,85.67 49.85,94.83 Z" fill="url(#SVGID_1_)"/>
  <path d="M89.27,123.29 C98.99,124.64 110.14,117.47 112.39,100.88 C114.63,84.36 106.78,74.32 98.82,72.78 L89.27,123.29 Z" fill="#424242"/>
  <path d="M88.71,69.36 L97.17,70.81 C100.59,71.47 103.27,74.12 103.97,77.54 C104.91,82.15 105.51,89.52 103.57,99.57 C101.62,109.61 98.31,116.22 95.7,120.15 C93.78,123.05 90.3,124.51 86.88,123.84 L78.42,122.39 C74.33,121.6 73.32,109.08 76.17,94.44 C79.01,79.8 84.62,68.57 88.71,69.36 Z" fill="#757575"/>
  <path d="M87.092,71.142 C90.502,71.804 91.139,83.307 88.514,96.834 C85.889,110.361 80.996,120.791 77.586,120.129 C74.176,119.467 73.539,107.965 76.164,94.438 C78.789,80.91 83.682,70.481 87.092,71.142 Z" fill="#424242" opacity="0.5"/>
  <path d="M78.15,94.83 C76.37,103.99 75.98,111.62 77.27,111.87 C78.56,112.12 81.06,104.9 82.83,95.74 C84.61,86.58 85,78.95 83.71,78.7 C82.42,78.45 79.93,85.67 78.15,94.83 Z" fill="url(#SVGID_2_)"/>
  <path d="M119.09,62.1 C116.26,64.02 112.77,61.86 111.7,58.94 C110.46,51.66 108.01,43.21 103.21,36.24 C94.22,22.45 79.11,15.54 64,15.53 C48.89,15.54 33.78,22.45 24.79,36.24 C19.99,43.21 17.55,51.67 16.3,58.94 C15.23,61.86 11.74,64.02 8.91,62.1 C8.68,61.94 8.33,61.54 7.97,61.32 C8.25,64.37 10.91,66.74 14.07,66.6 L14.94,66.56 C21.12,66.61 23.57,62.68 24.14,57.93 C24.85,51.98 26.74,45.01 31.72,38.4 C41.31,25.65 54.55,22.95 64,22.94 C73.45,22.95 86.69,25.65 96.28,38.4 C101.18,44.92 103.09,51.77 103.82,57.67 C104.44,62.62 106.84,66.61 113.59,66.59 L113.92,66.61 C117.08,66.76 119.74,64.38 120.02,61.33 C119.67,61.54 119.32,61.94 119.09,62.1 Z" fill="#424242"/>
  <path d="M14.65,41.61 C13.72,40.95 12.99,40.22 14.32,35.2 C15.93,29.15 23.4,17.44 38.45,9.68 C41.24,8.24 48.02,6.09 50.09,9.82 C52.05,13.36 42.58,15.94 39.24,17.73 C30.5,22.43 24.19,29.06 20.8,34.3 C19.72,35.97 16.87,43.17 14.65,41.61 Z" fill="#757575"/>
</svg>

<svg viewBox="0 0 128 128" xmlns="http://www.w3.org/2000/svg">
  <g>
    <ellipse cx="18.19" cy="101.39" rx="7.4" ry="10.85" fill="#616161" transform="matrix(0.9817 -0.1905 0.1905 0.9817 -18.986 5.3242)"/>
    <path d="M15.41,60.04c-0.64,13.15,0.36,27.76,2.01,41.81" fill="none" stroke="#616161" stroke-width="6" stroke-miterlimit="10"/>
    <ellipse cx="109.81" cy="101.39" rx="10.85" ry="7.4" fill="#616161" transform="matrix(0.1905 -0.9817 0.9817 0.1905 -10.6504 189.8675)"/>
    <path d="M112.59,60.04c0.64,13.15-0.36,27.76-2.01,41.81" fill="none" stroke="#616161" stroke-width="6" stroke-miterlimit="10"/>
    <path d="M113.93,66.61L113.93,66.61c-5.17-0.24-9.46-4.12-10.13-9.25c-0.75-5.81-2.68-12.52-7.52-18.96 c-7.61-10.11-18.75-15.46-32.23-15.46c-9.45,0-22.73,2.68-32.34,15.46c-4.9,6.52-6.81,13.37-7.54,19.27 c-0.61,4.89-4.57,8.68-9.5,8.91l-0.6,0.03c-3.46,0.16-6.32-2.7-6.12-6.15c0.48-8.43,2.6-23.4,11.05-34.64 C29.58,11.74,45.58,4,64.05,4c18.4,0,34.36,7.74,44.94,21.8c8.46,11.25,10.57,26.23,11.06,34.65 C120.25,63.91,117.39,66.77,113.93,66.61z" fill="#616161"/>
    <g>
      <path d="M38.73,123.29c-9.72,1.35-20.87-5.82-23.12-22.41c-2.24-16.52,5.61-26.56,13.57-28.1L38.73,123.29 z" fill="#424242"/>
      <path d="M39.29,69.36l-8.46,1.45c-3.42,0.66-6.1,3.31-6.8,6.73c-0.94,4.61-1.54,11.98,0.4,22.03 c1.95,10.04,5.26,16.65,7.87,20.58c1.92,2.9,5.4,4.36,8.82,3.69l8.46-1.45c4.09-0.79,5.1-13.31,2.25-27.95 C48.99,79.8,43.38,68.57,39.29,69.36z" fill="#757575"/>
      <ellipse cx="45.66" cy="95.64" rx="6.29" ry="24.95" opacity="0.5" fill="#424242" transform="matrix(0.9817 -0.1905 0.1905 0.9817 -17.3869 10.4521)"/>
      <linearGradient id="SVGID_1_" gradientTransform="matrix(0.9817 -0.1905 0.1905 0.9817 -139.217 -107.3365)" gradientUnits="userSpaceOnUse" x1="142.5968" x2="145.5269" y1="234.4848" y2="234.4848">
        <stop offset="0.2016" stop-color="#212121"/>
        <stop offset="1" stop-color="#212121" stop-opacity="0"/>
      </linearGradient>
      <path d="M49.85,94.83c1.78,9.16,2.17,16.79,0.88,17.04c-1.29,0.25-3.79-6.97-5.56-16.13 c-1.78-9.16-2.17-16.79-0.88-17.04S48.07,85.67,49.85,94.83z" fill="url(#SVGID_1_)"/>
    </g>
    <g>
      <path d="M89.27,123.29c9.72,1.35,20.87-5.82,23.12-22.41c2.24-16.52-5.61-26.56-13.57-28.1L89.27,123.29z" fill="#424242"/>
      <path d="M88.71,69.36l8.46,1.45c3.42,0.66,6.1,3.31,6.8,6.73c0.94,4.61,1.54,11.98-0.4,22.03 c-1.95,10.04-5.26,16.65-7.87,20.58c-1.92,2.9-5.4,4.36-8.82,3.69l-8.46-1.45c-4.09-0.79-5.1-13.31-2.25-27.95 C79.01,79.8,84.62,68.57,88.71,69.36z" fill="#757575"/>
      <ellipse cx="82.34" cy="95.64" rx="24.95" ry="6.29" opacity="0.5" fill="#424242" transform="matrix(0.1905 -0.9817 0.9817 0.1905 -27.2366 158.2495)"/>
      <linearGradient id="SVGID_2_" gradientTransform="matrix(-0.9817 -0.1905 -0.1905 0.9817 277.7421 -107.3365)" gradientUnits="userSpaceOnUse" x1="152.929" x2="155.859" y1="236.4903" y2="236.4903">
        <stop offset="0.2016" stop-color="#212121"/>
        <stop offset="1" stop-color="#212121" stop-opacity="0"/>
      </linearGradient>
      <path d="M78.15,94.83c-1.78,9.16-2.17,16.79-0.88,17.04s3.79-6.97,5.56-16.13 c1.78-9.16,2.17-16.79,0.88-17.04S79.93,85.67,78.15,94.83z" fill="url(#SVGID_2_)"/>
    </g>
    <path d="M119.09,62.1c-2.83,1.92-6.32-0.24-7.39-3.16c-1.24-7.28-3.69-15.73-8.49-22.7 C94.22,22.45,79.11,15.54,64,15.53c-15.11,0.01-30.22,6.92-39.21,20.71c-4.8,6.97-7.24,15.43-8.49,22.7 c-1.07,2.92-4.56,5.08-7.39,3.16c-0.23-0.16-0.58-0.56-0.94-0.78c0.28,3.05,2.94,5.42,6.1,5.28l0.87-0.04 c6.18,0.05,8.63-3.88,9.2-8.63c0.71-5.95,2.6-12.92,7.58-19.53C41.31,25.65,54.55,22.95,64,22.94c9.45,0.01,22.69,2.71,32.28,15.46 c4.9,6.52,6.81,13.37,7.54,19.27c0.62,4.95,3.02,8.94,9.77,8.92l0.33,0.02c3.16,0.15,5.82-2.23,6.1-5.28 C119.67,61.54,119.32,61.94,119.09,62.1z" fill="#424242"/>
    <path d="M14.65,41.61c-0.93-0.66-1.66-1.39-0.33-6.41c1.61-6.05,9.08-17.76,24.13-25.52 c2.79-1.44,9.57-3.59,11.64,0.14c1.96,3.54-7.51,6.12-10.85,7.91C30.5,22.43,24.19,29.06,20.8,34.3 C19.72,35.97,16.87,43.17,14.65,41.61z" fill="#757575"/>
  </g>
</svg>
